X:59
T:Haste to the Wedding
Z: id:dc-jig-49
M:6/8
L:1/8
K:D Major
A|AFA Agf|ede fdB|AFA AdF|EFE EFG|!
AFA Agf|ede fdB|AFA faf|ded d2:|!
a|afa afa|bgb bgb|afa agf|efe efg|!
a3 f3|ede fdB|AFA faf|ded d2:|!

